img/payment_1.svg

<svg width="103" height="36" viewBox="0 0 103 36" fill="none" xmlns="http://www.w3.org/2000/svg">
<path d="M36.5473 11.786V20.76H37.6113V11.786H36.5473ZM27.7413 18.142L28.3013 18.996C29.7433 18.408 30.8493 17.19 31.3673 15.664C31.8993 17.092 32.9913 18.212 34.4053 18.772L34.9653 17.918C33.1593 17.26 31.8853 15.566 31.8853 13.704V12.458H30.8073V13.704C30.8073 15.636 29.5753 17.442 27.7413 18.142ZM29.7853 23.756H38.0033V22.874H30.8493V19.948H29.7853V23.756ZM39.8237 17.862V18.73H50.8977V17.862H48.1397V16.112C49.1057 15.72 49.6517 15.09 49.6517 14.264C49.6517 12.836 48.0137 12.01 45.3537 12.01C42.6937 12.01 41.0697 12.836 41.0697 14.264C41.0697 15.09 41.6157 15.734 42.5817 16.112V17.862H39.8237ZM41.1677 21.838C41.1677 23.224 42.7217 24.008 45.3537 24.008C47.9717 24.008 49.5397 23.224 49.5397 21.838C49.5397 20.452 47.9717 19.668 45.3537 19.668C42.7217 19.668 41.1677 20.452 41.1677 21.838ZM42.1477 14.264C42.1477 13.368 43.3937 12.836 45.3537 12.836C47.3277 12.836 48.5597 13.368 48.5597 14.264C48.5597 15.174 47.3277 15.706 45.3537 15.706C43.3937 15.706 42.1477 15.174 42.1477 14.264ZM42.2317 21.838C42.2317 20.984 43.4217 20.494 45.3537 20.494C47.2857 20.494 48.4617 20.984 48.4617 21.838C48.4617 22.692 47.2857 23.182 45.3537 23.182C43.4217 23.182 42.2317 22.692 42.2317 21.838ZM43.6317 17.862V16.406C44.1357 16.504 44.7237 16.546 45.3537 16.546C45.9977 16.546 46.5717 16.504 47.0897 16.406V17.862H43.6317ZM58.346 13.046H52.844V13.928H57.296C57.254 14.684 57.128 15.412 56.918 16.112L52.228 16.434L52.396 17.386L56.596 16.98C55.854 18.632 54.482 20.06 52.186 21.166L52.774 22.006C57.142 19.822 58.346 16.588 58.346 13.046ZM60.39 24.036H61.454V17.666H63.442V16.77H61.454V11.758H60.39V24.036ZM65.7103 12.92V18.548H74.1103V17.666H66.7603V13.788H73.9843V12.92H65.7103ZM64.2963 22.342H75.3983V21.474H64.2963V22.342Z" fill="#797979"/>
<path d="M6 1H97V-1H6V1ZM102 6V30H104V6H102ZM97 35H6V37H97V35ZM1 30V6H-1V30H1ZM6 35C3.23858 35 1 32.7614 1 30H-1C-1 33.866 2.13401 37 6 37V35ZM102 30C102 32.7614 99.7614 35 97 35V37C100.866 37 104 33.866 104 30H102ZM97 1C99.7614 1 102 3.23858 102 6H104C104 2.13401 100.866 -1 97 -1V1ZM6 -1C2.13401 -1 -1 2.13401 -1 6H1C1 3.23858 3.23858 1 6 1V-1Z" fill="#E2E2E2"/>
</svg>

<?xml version="1.0" encoding="utf-8"?>
<!-- Generator: Adobe Illustrator 26.3.1, SVG Export Plug-In . SVG Version: 6.00 Build 0)  -->
<svg version="1.1" id="레이어_1" xmlns="http://www.w3.org/2000/svg" xmlns:xlink="http://www.w3.org/1999/xlink" x="0px"
	 y="0px" viewBox="0 0 103 36" style="enable-background:new 0 0 103 36;" xml:space="preserve">
<style type="text/css">
	.st0{fill:#797979;}
</style>
<path class="st0" d="M36.55,11.79v8.97h1.06v-8.97H36.55z M27.74,18.14L28.3,19c1.44-0.59,2.55-1.81,3.07-3.33
	c0.53,1.43,1.62,2.55,3.04,3.11l0.56-0.85c-1.81-0.66-3.08-2.35-3.08-4.21v-1.25h-1.08v1.25C30.81,15.64,29.58,17.44,27.74,18.14z
	 M29.79,23.76H38v-0.88h-7.15v-2.93h-1.06V23.76z M39.82,17.86v0.87H50.9v-0.87h-2.76v-1.75c0.97-0.39,1.51-1.02,1.51-1.85
	c0-1.43-1.64-2.25-4.3-2.25s-4.28,0.83-4.28,2.25c0,0.83,0.55,1.47,1.51,1.85v1.75H39.82z M41.17,21.84c0,1.39,1.55,2.17,4.19,2.17
	c2.62,0,4.19-0.78,4.19-2.17c0-1.39-1.57-2.17-4.19-2.17C42.72,19.67,41.17,20.45,41.17,21.84z M42.15,14.26
	c0-0.9,1.25-1.43,3.21-1.43c1.97,0,3.21,0.53,3.21,1.43c0,0.91-1.23,1.44-3.21,1.44C43.39,15.71,42.15,15.17,42.15,14.26z
	 M42.23,21.84c0-0.85,1.19-1.34,3.12-1.34c1.93,0,3.11,0.49,3.11,1.34s-1.18,1.34-3.11,1.34C43.42,23.18,42.23,22.69,42.23,21.84z
	 M43.63,17.86v-1.46c0.5,0.1,1.09,0.14,1.72,0.14c0.64,0,1.22-0.04,1.74-0.14v1.46H43.63z M58.35,13.05h-5.5v0.88h4.45
	c-0.04,0.76-0.17,1.48-0.38,2.18l-4.69,0.32l0.17,0.95l4.2-0.41c-0.74,1.65-2.11,3.08-4.41,4.19l0.59,0.84
	C57.14,19.82,58.35,16.59,58.35,13.05z M60.39,24.04h1.06v-6.37h1.99v-0.9h-1.99v-5.01h-1.06V24.04z M65.71,12.92v5.63h8.4v-0.88
	h-7.35v-3.88h7.22v-0.87H65.71z M64.3,22.34h11.1v-0.87H64.3V22.34z"/>
</svg>
